X:1
T:Title
%%score { ( 1 3 ) | 2 }
L:1/8
Q:1/4=92
M:6/8
K:Ab
V:1 treble nm="Grand Piano"
V:3 treble 
V:2 bass 
V:1
 [Ec]3 [Ec]2 [Ec] | [Ec][DB][CA] [CE][A,C][B,D] | [CE][CF][CG] [CA][DG][EA] | B=Ac B3 | %4
w: Chas.~H.~Gabriel * *||||
 [Ec]3 [Ec]2 [Ec] | [Ec][DB][CA] [CE][A,C][B,D] | [CE][CF][DG] [EA]Bc | Bc[A=d] [Ge]3 | %8
w: ||||
 e3 c2 [EB] | [FA][=EG][FA] [GB][FA][DF] | [CE][EA]B cdc | z3 B3 | e3 c2 [EB] | %13
w: |||||
 [FA][=EG][FA] [GB][FA][DF] |[M:13/16] [CE][EA]Bc[Fd]3/2[Ec] |[M:3/4] [=DB][DF] [_DG] [CA]3 |] %16
w: |||
V:2
 [A,,A,]3 [A,,A,]2 [A,,A,] | [A,,A,][A,,A,][A,,A,] [A,,A,][A,,E,][A,,E,] | %2
 [A,,A,][A,,A,][A,,A,] [A,,E,][B,,E,][C,A,] | [E,G,E][E,_G,E][E,A,E] [E,=G,E]3 | %4
 [A,,A,]3 [A,,A,]2 [A,,A,] | [A,,A,][A,,A,][A,,A,] [A,,A,][A,,E,][A,,E,] | %6
 [A,,A,][A,,A,][B,,E,] [C,E,][E,G,E][A,E] | [G,B,E][A,E][F,B,] [E,B,]3 | [A,CE]3 [A,E]2 [C,A,] | %9
 [D,D][D,D][D,D] [D,D][D,D][D,A,] | [A,,A,][C,A,][E,G,E][K:treble] [A,E][A,F][K:bass][A,E] | %11
 [F,A,=D][F,A,D][F,A,D] .[E,G,E]3 | [A,CE]3 [A,E]2 [C,A,] | [D,D][D,D][D,D] [D,D][D,D][D,A,] | %14
[M:13/16] [A,,A,][C,A,][E,G,E][A,E][D,A,]3/2[A,,A,] |[M:3/4] [B,,A,][B,,A,] [E,B,] [A,,A,]3 |] %16
V:3
 x6 | x6 | x6 | x6 | x6 | x6 | x6 | x6 | x6 | x6 | x6 | cBA z2 D | x6 | x6 |[M:13/16] x13/2 | %15
[M:3/4] x6 |] %16

